public/logos/code-climate.svg

<svg fill="none" height="58" viewBox="0 0 512 58" width="512" xmlns="http://www.w3.org/2000/svg" xmlns:xlink="http://www.w3.org/1999/xlink"><clipPath id="a"><path d="m0 0h512v58h-512z"/></clipPath><g clip-path="url(#a)" fill="#fff"><path d="m145.855 11.7244c5.486 0 9.574 1.721 13.231 5.0554.538.4303.538 1.0757.107 1.5059l-4.302 4.4101c-.43.4302-.968.4302-1.399 0-2.043-1.8286-4.732-2.7966-7.421-2.7966-6.239 0-10.757 5.163-10.757 11.2941s4.626 11.079 10.757 11.079c2.581 0 5.378-.9681 7.314-2.5815.43-.3227 1.076-.3227 1.398.1075l4.303 4.5177c.43.4302.322 1.0756-.108 1.5058-3.765 3.6572-8.39 5.2706-13.338 5.2706-10.971 0-19.791-8.7126-19.791-19.684s9.035-19.684 20.006-19.684z"/><path d="m182.427 11.7244c10.971 0 19.684 8.8201 19.684 19.7916 0 10.9714-8.713 19.684-19.684 19.684s-19.684-8.7126-19.684-19.684c0-10.9715 8.82-19.7916 19.684-19.7916zm0 30.763c6.023 0 10.971-4.9479 10.971-10.8639 0-6.0235-4.948-10.9714-10.971-10.9714-6.024 0-10.864 4.9479-10.864 10.9714 0 5.916 4.948 10.8639 10.864 10.8639z"/><path d="m208.78 13.3378c0-.5378.43-1.0756.968-1.0756h13.338c10.541 0 19.253 8.605 19.253 19.1462 0 10.6488-8.605 19.2538-19.253 19.2538h-13.338c-.538 0-.968-.5378-.968-1.0756zm13.875 29.2572c6.239 0 10.649-4.8404 10.649-11.079 0-6.2387-4.517-11.079-10.649-11.079h-5.27v22.158z"/><path d="m249.116 13.3378c0-.5378.43-1.0756 1.076-1.0756h22.695c.646 0 1.076.5378 1.076 1.0756v6.0236c0 .5378-.43 1.0756-1.076 1.0756h-15.166v6.7765h12.477c.538 0 1.076.5378 1.076 1.0756v6.0235c0 .6454-.538 1.0757-1.076 1.0757h-12.477v7.4218h15.166c.646 0 1.076.5378 1.076 1.0756v6.0236c0 .5378-.43 1.0756-1.076 1.0756h-22.695c-.646 0-1.076-.5378-1.076-1.0756z"/><path d="m310.319 11.7244c5.486 0 9.573 1.721 13.231 5.0554.537.4303.537 1.0757.107 1.5059l-4.302 4.4101c-.431.4302-.968.4302-1.399 0-2.043-1.8286-4.732-2.7966-7.422-2.7966-6.238 0-10.756 5.163-10.756 11.2941s4.625 11.079 10.756 11.079c2.582 0 5.379-.9681 7.315-2.5815.43-.3227 1.075-.3227 1.398.1075l4.303 4.5177c.43.4302.322 1.0756-.108 1.5058-3.765 3.6572-8.39 5.2706-13.338 5.2706-10.971 0-19.791-8.7126-19.791-19.684s9.035-19.684 20.006-19.684z"/><path d="m330.111 13.3378c0-.5378.43-1.0756 1.076-1.0756h6.561c.538 0 1.076.5378 1.076 1.0756v29.2572h13.015c.645 0 1.075.5378 1.075 1.0756v6.0235c0 .5379-.43 1.0757-1.075 1.0757h-20.545c-.645 0-1.075-.5378-1.075-1.0757v-36.3563z"/><path d="m358.185 13.3378c0-.5378.538-1.0756 1.076-1.0756h6.561c.538 0 1.076.5378 1.076 1.0756v36.2488c0 .5378-.538 1.0756-1.076 1.0756h-6.561c-.538 0-1.076-.5378-1.076-1.0756z"/><path d="m380.02 12.6924c.108-.5378.538-.8605.968-.8605h.861c.322 0 .753.2151.968.5378l12.692 23.6639h.108l12.692-23.6639c.215-.3227.646-.5378.968-.5378h.861c.43 0 .968.4303.968.8605l6.238 36.7866c.108.7529-.43 1.1832-1.075 1.1832h-6.454c-.538 0-.968-.4303-1.076-.8605l-2.473-16.8874h-.108l-9.143 17.6403c-.215.3227-.645.6454-.968.6454h-.968c-.323 0-.753-.3227-.968-.6454l-9.251-17.7479h-.107l-2.366 16.8874c-.108.4302-.538.8605-1.076.8605h-6.454c-.645 0-1.183-.5378-1.076-1.1832z"/><path d="m419.388 49.2639 17.103-36.8942c.215-.3226.538-.6453.968-.6453h.538c.43 0 .753.3227.968.6453l17.102 36.8942c.323.7529-.107 1.3983-.968 1.3983h-6.131c-.968 0-1.398-.3227-1.936-1.3983l-1.936-4.3026h-14.844l-1.936 4.4101c-.323.6454-.86 1.2908-1.936 1.2908h-6.024c-.86 0-1.29-.753-.968-1.3983zm22.481-11.7244-4.195-9.0353h-.108l-4.087 9.0353z"/><path d="m463.597 20.3295h-7.852c-.646 0-1.076-.5379-1.076-1.0757v-6.0235c0-.5378.43-1.0756 1.076-1.0756h24.309c.645 0 1.075.5378 1.075 1.0756v6.1311c0 .5378-.43 1.0756-1.075 1.0756h-7.852v29.2572c0 .5378-.538 1.0756-1.076 1.0756h-6.561c-.538 0-1.076-.5378-1.076-1.0756v-29.3647z"/><path d="m486.508 13.3378c0-.5378.43-1.0756 1.075-1.0756h22.696c.645 0 1.076.5378 1.076 1.0756v6.0236c0 .5378-.431 1.0756-1.076 1.0756h-15.166v6.7765h12.477c.538 0 1.076.5378 1.076 1.0756v6.0235c0 .6454-.538 1.0757-1.076 1.0757h-12.477v7.4218h15.166c.645 0 1.076.5378 1.076 1.0756v6.0236c0 .5378-.431 1.0756-1.076 1.0756h-22.696c-.645 0-1.075-.5378-1.075-1.0756z"/><path d="m68.6252 0-19.5765 19.4689 11.6168 11.6168 7.9597-7.9596 22.3731 22.4806 11.5097-11.6168z"/><path d="m45.4992 23.0185-11.5093-11.5092-29.47225 29.4722-4.51765 4.5177 11.6168 11.6168 4.5177-4.6252 14.9512-14.8437 2.9042-2.9042 11.5093 11.5092 10.8638 10.8639 11.6168-11.6168-10.8638-10.8639z"/></g></svg>

<svg width="512" height="58" viewBox="0 0 512 58" fill="none" xmlns="http://www.w3.org/2000/svg">
<g clip-path="url(#clip0_9_731)">
<path d="M145.855 11.7244C151.341 11.7244 155.429 13.4454 159.086 16.7798C159.624 17.2101 159.624 17.8555 159.193 18.2857L154.891 22.6958C154.461 23.126 153.923 23.126 153.492 22.6958C151.449 20.8672 148.76 19.8992 146.071 19.8992C139.832 19.8992 135.314 25.0622 135.314 31.1933C135.314 37.3244 139.94 42.2723 146.071 42.2723C148.652 42.2723 151.449 41.3042 153.385 39.6908C153.815 39.3681 154.461 39.3681 154.783 39.7983L159.086 44.316C159.516 44.7462 159.408 45.3916 158.978 45.8218C155.213 49.479 150.588 51.0924 145.64 51.0924C134.669 51.0924 125.849 42.3798 125.849 31.4084C125.849 20.437 134.884 11.7244 145.855 11.7244Z" fill="white"/>
<path d="M182.427 11.7244C193.398 11.7244 202.111 20.5445 202.111 31.516C202.111 42.4874 193.398 51.2 182.427 51.2C171.456 51.2 162.743 42.4874 162.743 31.516C162.743 20.5445 171.563 11.7244 182.427 11.7244ZM182.427 42.4874C188.45 42.4874 193.398 37.5395 193.398 31.6235C193.398 25.6 188.45 20.6521 182.427 20.6521C176.403 20.6521 171.563 25.6 171.563 31.6235C171.563 37.5395 176.511 42.4874 182.427 42.4874Z" fill="white"/>
<path d="M208.78 13.3378C208.78 12.8 209.21 12.2622 209.748 12.2622H223.086C233.627 12.2622 242.339 20.8672 242.339 31.4084C242.339 42.0572 233.734 50.6622 223.086 50.6622H209.748C209.21 50.6622 208.78 50.1244 208.78 49.5866V13.3378ZM222.655 42.595C228.894 42.595 233.304 37.7546 233.304 31.516C233.304 25.2773 228.787 20.437 222.655 20.437H217.385V42.595H222.655Z" fill="white"/>
<path d="M249.116 13.3378C249.116 12.8 249.546 12.2622 250.192 12.2622H272.887C273.533 12.2622 273.963 12.8 273.963 13.3378V19.3614C273.963 19.8992 273.533 20.437 272.887 20.437H257.721V27.2135H270.198C270.736 27.2135 271.274 27.7513 271.274 28.2891V34.3126C271.274 34.958 270.736 35.3883 270.198 35.3883H257.721V42.8101H272.887C273.533 42.8101 273.963 43.3479 273.963 43.8857V49.9093C273.963 50.4471 273.533 50.9849 272.887 50.9849H250.192C249.546 50.9849 249.116 50.4471 249.116 49.9093V13.3378Z" fill="white"/>
<path d="M310.319 11.7244C315.805 11.7244 319.892 13.4454 323.55 16.7798C324.087 17.2101 324.087 17.8555 323.657 18.2857L319.355 22.6958C318.924 23.126 318.387 23.126 317.956 22.6958C315.913 20.8672 313.224 19.8992 310.534 19.8992C304.296 19.8992 299.778 25.0622 299.778 31.1933C299.778 37.3244 304.403 42.2723 310.534 42.2723C313.116 42.2723 315.913 41.3042 317.849 39.6908C318.279 39.3681 318.924 39.3681 319.247 39.7983L323.55 44.316C323.98 44.7462 323.872 45.3916 323.442 45.8218C319.677 49.479 315.052 51.0924 310.104 51.0924C299.133 51.0924 290.313 42.3798 290.313 31.4084C290.313 20.437 299.348 11.7244 310.319 11.7244Z" fill="white"/>
<path d="M330.111 13.3378C330.111 12.8 330.541 12.2622 331.187 12.2622H337.748C338.286 12.2622 338.824 12.8 338.824 13.3378V42.595H351.839C352.484 42.595 352.914 43.1328 352.914 43.6706V49.6941C352.914 50.232 352.484 50.7698 351.839 50.7698H331.294C330.649 50.7698 330.219 50.232 330.219 49.6941V13.3378H330.111Z" fill="white"/>
<path d="M358.185 13.3378C358.185 12.8 358.723 12.2622 359.261 12.2622H365.822C366.36 12.2622 366.898 12.8 366.898 13.3378V49.5866C366.898 50.1244 366.36 50.6622 365.822 50.6622H359.261C358.723 50.6622 358.185 50.1244 358.185 49.5866V13.3378Z" fill="white"/>
<path d="M380.02 12.6924C380.128 12.1546 380.558 11.8319 380.988 11.8319H381.849C382.171 11.8319 382.602 12.047 382.817 12.3697L395.509 36.0336H395.617L408.309 12.3697C408.524 12.047 408.955 11.8319 409.277 11.8319H410.138C410.568 11.8319 411.106 12.2622 411.106 12.6924L417.344 49.479C417.452 50.2319 416.914 50.6622 416.269 50.6622H409.815C409.277 50.6622 408.847 50.2319 408.739 49.8017L406.266 32.9143H406.158L397.015 50.5546C396.8 50.8773 396.37 51.2 396.047 51.2H395.079C394.756 51.2 394.326 50.8773 394.111 50.5546L384.86 32.8067H384.753L382.387 49.6941C382.279 50.1243 381.849 50.5546 381.311 50.5546H374.857C374.212 50.5546 373.674 50.0168 373.781 49.3714L380.02 12.6924Z" fill="white"/>
<path d="M419.388 49.2639L436.491 12.3697C436.706 12.0471 437.029 11.7244 437.459 11.7244H437.997C438.427 11.7244 438.75 12.0471 438.965 12.3697L456.067 49.2639C456.39 50.0168 455.96 50.6622 455.099 50.6622H448.968C448 50.6622 447.57 50.3395 447.032 49.2639L445.096 44.9613H430.252L428.316 49.3714C427.993 50.0168 427.456 50.6622 426.38 50.6622H420.356C419.496 50.6622 419.066 49.9092 419.388 49.2639ZM441.869 37.5395L437.674 28.5042H437.566L433.479 37.5395H441.869Z" fill="white"/>
<path d="M463.597 20.3295H455.745C455.099 20.3295 454.669 19.7916 454.669 19.2538V13.2303C454.669 12.6925 455.099 12.1547 455.745 12.1547H480.054C480.699 12.1547 481.129 12.6925 481.129 13.2303V19.3614C481.129 19.8992 480.699 20.437 480.054 20.437H472.202V49.6942C472.202 50.232 471.664 50.7698 471.126 50.7698H464.565C464.027 50.7698 463.489 50.232 463.489 49.6942V20.3295H463.597Z" fill="white"/>
<path d="M486.508 13.3378C486.508 12.8 486.938 12.2622 487.583 12.2622H510.279C510.924 12.2622 511.355 12.8 511.355 13.3378V19.3614C511.355 19.8992 510.924 20.437 510.279 20.437H495.113V27.2135H507.59C508.128 27.2135 508.666 27.7513 508.666 28.2891V34.3126C508.666 34.958 508.128 35.3883 507.59 35.3883H495.113V42.8101H510.279C510.924 42.8101 511.355 43.3479 511.355 43.8857V49.9093C511.355 50.4471 510.924 50.9849 510.279 50.9849H487.583C486.938 50.9849 486.508 50.4471 486.508 49.9093V13.3378Z" fill="white"/>
<path d="M68.6252 0L49.0487 19.4689L60.6655 31.0857L68.6252 23.1261L90.9983 45.6067L102.508 33.9899L68.6252 0Z" fill="white"/>
<path d="M45.4992 23.0185L33.9899 11.5093L4.51765 40.9815L0 45.4992L11.6168 57.116L16.1345 52.4908L31.0857 37.6471L33.9899 34.7429L45.4992 46.2521L56.363 57.116L67.9798 45.4992L57.116 34.6353L45.4992 23.0185Z" fill="white"/>
</g>
<defs>
<clipPath id="clip0_9_731">
<rect width="512" height="58" fill="white"/>
</clipPath>
</defs>
</svg>
